X: 10614
T: Dowd's Favourite
R: reel
M: 4/4
K: Gdorian
|B3 A B2AF|DFF2 CFAF|DGGA BABd|cAfA AGG|
F|DGGA BABF|DFF2 DFCF|DGGA B3d|cAfA AGG|
A|B2dB FBdB|B2dB cAFA|B2dB FBdB|cAFA BGGA|
B2dB fBdB|B2dB cAFA|DGGF Ggge|fdcA AGG||
z|gdd2 gbag|fcc2 fgaf|gdd2 gbag|fdcA BGG2|
g2dg b2ag|f2cf a2AF|GABc dgge|fdcA ABAF||

